X:172
%%pagewidth 9.5in
%%vocalfont Baskerville10Pro 14
T:The crossed couple
M:6/8
L:1/8
K:Bb
%%score 1 2
V:1 clef-treble
V:2 clef-bass octave=-1
[V:1]F|B>cB [GB]AG &D2x4|[CA]GF [B,B]2D|EFG F>GF &x3E3|
w:One ev'-ning a lit-tle be-fore it was dark, Sing tan-ta-ra, ra-ra, tan-
w:I call'd for my geld-ing, and rode to Hyde Par, Sing tan-ta-ra, ra-ra, tan-
[V:2]z|B,3E3|F3G3|[B,B]3[FA]3|
[V:1]FB2-B2 &D3-D2:||F|[DB]2c [B(d]c)d|[B(e]d)[Ac] [Bd]2c|[DB]2c [B(d]c)d|[Ge]d[Gc] [^FAd]2c|
w:ti-*vee. It was in the merry* month* of May, When meadows and fields* were gaudy* and gay, And
[V:2][B,B]3-[B,B]2:||z|B3G3|C2F B,2z|G3G,3|C2E D3|
[V:1]Bdd Acc &G3E3|[CA]GF [B,B]2D|(EF)G F>GF &x3E3|FB2-B2 &D3-D2||
w:flow-ers appar-*rell'd as bright as the day, I got* up-on my tan-ti-vee.*
[V:2]G3C3|F3D2[GB]|[CB]3[FA]3|[B,B]3-[B,B]2||

